src/symbolic/mimetypes/playlist-symbolic.svg

<svg xmlns="http://www.w3.org/2000/svg" width="16" height="16"><path d="M3 3v1h10V3zm0 4v1h6V7zm0 4v1h4v-1zM10 5v6.09a1.64 1.64 0 0 0-.5-.09c-.83 0-1.5.67-1.5 1.5S8.67 14 9.5 14s1.5-.67 1.5-1.5V8h3v3.09a1.64 1.64 0 0 0-.5-.09c-.83 0-1.5.67-1.5 1.5s.67 1.5 1.5 1.5 1.5-.67 1.5-1.5V5z" fill="#5d656b"/></svg>

<?xml version="1.0" encoding="UTF-8" standalone="no"?>
<svg
   xmlns:dc="http://purl.org/dc/elements/1.1/"
   xmlns:cc="http://creativecommons.org/ns#"
   xmlns:rdf="http://www.w3.org/1999/02/22-rdf-syntax-ns#"
   xmlns:svg="http://www.w3.org/2000/svg"
   xmlns="http://www.w3.org/2000/svg"
   xmlns:sodipodi="http://sodipodi.sourceforge.net/DTD/sodipodi-0.dtd"
   xmlns:inkscape="http://www.inkscape.org/namespaces/inkscape"
   width="16"
   height="16"
   version="1.1"
   id="svg6"
   sodipodi:docname="playlist-symbolic.svg"
   inkscape:version="0.92.4 (5da689c313, 2019-01-14)">
  <metadata
     id="metadata12">
    <rdf:RDF>
      <cc:Work
         rdf:about="">
        <dc:format>image/svg+xml</dc:format>
        <dc:type
           rdf:resource="http://purl.org/dc/dcmitype/StillImage" />
      </cc:Work>
    </rdf:RDF>
  </metadata>
  <defs
     id="defs10" />
  <sodipodi:namedview
     pagecolor="#ffffff"
     bordercolor="#666666"
     borderopacity="1"
     objecttolerance="10"
     gridtolerance="10"
     guidetolerance="10"
     inkscape:pageopacity="0"
     inkscape:pageshadow="2"
     inkscape:window-width="1366"
     inkscape:window-height="710"
     id="namedview8"
     showgrid="true"
     inkscape:zoom="10.429825"
     inkscape:cx="1.769705"
     inkscape:cy="9.4549029"
     inkscape:window-x="0"
     inkscape:window-y="0"
     inkscape:window-maximized="1"
     inkscape:current-layer="svg6">
    <inkscape:grid
       type="xygrid"
       id="grid822" />
  </sodipodi:namedview>
  <path
     style="fill:#666666;fill-opacity:1"
     d="M 3,3 V 4 H 13 V 3 Z M 3,7 V 8 H 9 V 7 Z m 0,4 v 1 h 4 v -1 z"
     id="path2"
     inkscape:connector-curvature="0"
     sodipodi:nodetypes="ccccccccccccccc" />
  <path
     style="fill:#666666;fill-opacity:1"
     d="m 10,5 v 6.09 C 9.85,11.04 9.67,11 9.5,11 8.67,11 8,11.67 8,12.5 8,13.33 8.67,14 9.5,14 10.33,14 11,13.33 11,12.5 V 8 h 3 v 3.09 C 13.85,11.04 13.67,11 13.5,11 12.67,11 12,11.67 12,12.5 12,13.33 12.67,14 13.5,14 14.33,14 15,13.33 15,12.5 V 5 Z"
     id="path4"
     inkscape:connector-curvature="0"
     sodipodi:nodetypes="ccsssscccsssscc" />
</svg>
